common/resources/fonts/svg/close-circle.svg

<?xml version="1.0" encoding="UTF-8" standalone="no"?>
<svg width="1024px" height="1024px" viewBox="0 0 1024 1024" version="1.1" xmlns="http://www.w3.org/2000/svg" xmlns:xlink="http://www.w3.org/1999/xlink">
    <!-- Generator: Sketch 3.7.1 (28215) - http://www.bohemiancoding.com/sketch -->
    <title>close-circle</title>
    <desc>Created with Sketch.</desc>
    <defs></defs>
    <g id="Page-1" stroke="none" stroke-width="1" fill="none" fill-rule="evenodd">
        <g id="close-circle" fill="#000000">
            <path d="M512,102 C285.601594,102 102,285.601594 102,512 C102,738.398406 285.601594,922 512,922 C738.398406,922 922,738.398406 922,512 C922,285.601594 738.398406,102 512,102 L512,102 Z M684.575697,745.994024 L512.081673,574.071713 L340.241036,746.565737 L278.005976,684.575697 L449.928287,512.081673 L277.434263,340.241036 L339.424303,278.005976 L511.918327,449.928287 L683.758964,277.434263 L745.994024,339.424303 L574.071713,511.918327 L746.565737,683.758964 L684.575697,745.994024 L684.575697,745.994024 Z" id="Shape"></path>
        </g>
    </g>
</svg>

<svg width="1024" height="1024" viewBox="0 0 1024 1024">
    <path d="M512 102c-226.398 0-410 183.602-410 410s183.602 410 410 410 410-183.602 410-410-183.602-410-410-410zm172.576 643.994L512.082 574.072 340.24 746.566l-62.235-61.99 171.922-172.494L277.434 340.24l61.99-62.235 172.494 171.922L683.76 277.434l62.235 61.99-171.922 172.494L746.566 683.76l-61.99 62.235z" fill-rule="evenodd"/>
</svg>
